X:1
T:Partition sans titre
C:Compositeur / Arrangeur
L:1/8
M:4/4
I:linebreak $
K:A
V:1 treble nm="Violon" snm="Vln."
V:1
"A" c2 ec"D7" dfec |"A" A2 BA c2 ec |"D7" dfec"A" AABA | c2 Ac"D" afed |[M:2/4]"A" c2 BA :| %5
"E" Bc de |:[M:4/4]"D" fBBA"E" BA B2 | Bcde"D" fBBA |"E" BA B2 BdcA | B2 eB BeBe | %10
"E" Bcde"D" f2 ff |"E" eagf"A" eaaa |1[M:2/4] ac"E" de :|2 a2 BA |] %14
